X:1
T:Mannheim, 87.87.87
T:MANNHEIM, Friedrich Filitz, 1847
T:James Edmeston 1791-1867
T:Lead us, heavenly Father, lead us
T:L8
T:Public Domain. Based on a score from the CyberHymnal TM.
C:Friedrich Filitz, 1847
Z:Public Domain. Based on a score from the CyberHymnal TM.
%%score ( 1 2 ) ( 3 4 )
L:1/8
Q:1/4=120
M:4/4
K:E
V:1 treble nm="Part_1"
V:2 treble 
V:3 bass nm="Part_2"
V:4 bass 
V:1
 [EE]2 [EG]2 [FB]2 [EB]2 | [Cc]2 [DB]2 A2 [EG]2 | [EG]2 [FA]2 [FB]2 E2 | [EG]2 [DF]2 E4 || %4
w: 1.Lead us heaven- ly|Fa- ther lead us,|o'er the world's tem-|pes- tuous- sea;|
w: 2.Sa- viour, breathe for-|give- ness o'er us,|all our weak- ness|thou dost know;|
w: 3.Spi- rit of our-|God, de- scen- ding,|fill our hearts with|heaven- ly joy,|
 [EB]2 [EB]2 [Ec]2 [EB]2 | [E=d]2 [Ec]2 [Ec]2 [EB]2 | [FB]2 [DF]2 [EG]2 [Gc]2 | %7
w: guard us, guide us,|keep us, feed us,|for we have no|
w: thou didst treat this|earth be- fore us,|thou didst feel its|
w: love with e- very|pa- ssion blen- ding,|plea- sure that can|
 [FB]2 [E^A]2 [DB]4 || [B,E]2 [EG]2 [FB]2 [EB]2 | [Ec]2 [DB]2 [EA]2 !breath![EG]2 | %10
w: help but thee;|yet po- sess- ing|e- very bless- ing,|
w: keen- est woe;|lone and drea- ry,|faint and wea- ry,|
w: ne- ver cloy;|thus pro- vid- ed,|par- doned guid- ed,|
 [EG]2 [FA]2 [FB]2 E2 | [EG]2 [DF]2 E4 |] %12
w: if our God our|Fa- ther be.|
w: through the de- sert|thou didst go.|
w: no- thing can our|peace de- stroy.|
V:2
 x8 | x4 EF x2 | x8 | x4 E4 || x8 | x8 | x8 | x8 || x8 | x8 | x6 E2 | x4 E4 |] %12
V:3
 [E,G,]2 [E,B,]2 [D,B,]2 [E,G,]2 | [A,,A,]2 [B,,F,]2 [C,E,]2 E,2 | [C,C]2 [F,C]2 [D,B,]2 [E,G,]2 | %3
 [B,,B,]2 [B,,A,]2 [E,G,]4 || [E,G,]2 [E,G,]2 [E,A,]2 [E,G,]2 | [G,B,]2 A,2 [E,A,]2 [E,G,]2 | %6
 [D,B,]2 [B,,B,]2 [E,B,]2 [C,C]2 | [F,B,]2 [F,C]2 [B,,B,]4 || [E,G,]2 [E,B,]2 [D,B,]2 [E,G,]2 | %9
 [A,,A,]2 [B,,F,]2 [C,E,]2 E,2 | [C,C]2 [F,C]2 [D,B,]2 [E,G,]2 | [B,,B,]2 [B,,A,]2 [E,G,]4 |] %12
V:4
 x8 | x6 E,2 | x8 | x8 || x8 | x2 A,2 x4 | x8 | x8 || x8 | x6 E,2 | x8 | x8 |] %12

